(.../pcb-gcode-3.6.0.4/pcb-gcode.ulp)
(Copyright 2005 - 2012 by John Johnson)
(See readme.txt for licensing terms.)
(This file generated from the board:)
(.../piezo-buffer-and-preamp-ritter_copperclad.brd)
(Current profile is .../pcb-gcode-3.6.0.4/profiles/imodela.pp  )
(This file generated 7/18/16 5:30 PM)
(Settings from pcb-machine.h)
(  Tool Size)
(0.20 )
(Z Axis Settings)
(  High     Up        Down     Drill)
(2.00 	1.00 	-0.20 	-1.70 )
(spindle on time = 6.0000)
(milling depth = -0.2540)
(text depth = -0.1270)
(tool change at 0.00 0.00 10.00 )
(feed rate xy = F140.00 )
(feed rate z  = F35.00 )
(Settings from pcb-defaults.h)
(isolate min = 0.0010)
(isolate max = 0.2000)
(isolate step = 0.2000)
(Generated bottom outlines, bottom drill, )
(Unit of measure: mm)
( Tool|       Size       |  Min Sub |  Max Sub |   Count )
( T01  0.700mm 0.0276in 0.0000in 0.0000in )
( T02  0.813mm 0.0320in 0.0000in 0.0000in )
( T03  1.016mm 0.0400in 0.0000in 0.0000in )
( T04  1.100mm 0.0433in 0.0000in 0.0000in )
(Metric Mode)
G21
(Absolute Coordinates)
G90
M05
G00 Z10.00 
G00 X0.00 Y0.00 
(M06 T01  ; 0.70 )
G01 Z0.00 F35.00 
(M06 T01  ; 0.70 )
G00 Z1.00 
M03
G04 P 6
G00 Z1.000000
G00 X-17.78 Y19.05 
G01 Z-1.70 F35.00 
G01 Z1.000000
(R1.00  P1.000000)
(G00 Z1.000000)
G00 X-17.78 Y21.59 
G01 Z-1.700000
G01 Z1.000000
M05
G00 Z10.00 
(M06 T02  ; 0.81 )
G01 Z0.00 F35.00 
(M06 T02  ; 0.81 )
G00 Z1.00 
M03
G04 P 6
G00 Z1.000000
G00 X-32.38 Y15.88 
G01 Z-1.70 F35.00 
G01 Z1.000000
(R1.00  P1.000000)
(G00 Z1.000000)
G00 X-33.02 Y22.86 
G01 Z-1.700000
G01 Z1.000000
(G00 Z1.000000)
G00 X-34.29 Y14.61 
G01 Z-1.700000
G01 Z1.000000
(G00 Z1.000000)
G00 X-34.29 Y17.14 
G01 Z-1.700000
G01 Z1.000000
(G00 Z1.000000)
G00 X-34.29 Y24.77 
G01 Z-1.700000
G01 Z1.000000
(G00 Z1.000000)
G00 X-35.56 Y22.86 
G01 Z-1.700000
G01 Z1.000000
(G00 Z1.000000)
G00 X-40.64 Y30.48 
G01 Z-1.700000
G01 Z1.000000
(G00 Z1.000000)
G00 X-41.91 Y32.38 
G01 Z-1.700000
G01 Z1.000000
(G00 Z1.000000)
G00 X-43.18 Y30.48 
G01 Z-1.700000
G01 Z1.000000
M05
G00 Z10.00 
(M06 T03  ; 1.02 )
G01 Z0.00 F35.00 
(M06 T03  ; 1.02 )
G00 Z1.00 
M03
G04 P 6
G00 Z1.000000
G00 X-6.22 Y16.71 
G01 Z-1.70 F35.00 
G01 Z1.000000
(R1.00  P1.000000)
(G00 Z1.000000)
G00 X-6.22 Y19.61 
G01 Z-1.700000
G01 Z1.000000
(G00 Z1.000000)
G00 X-6.22 Y25.48 
G01 Z-1.700000
G01 Z1.000000
(G00 Z1.000000)
G00 X-6.22 Y28.37 
G01 Z-1.700000
G01 Z1.000000
(G00 Z1.000000)
G00 X-6.35 Y3.81 
G01 Z-1.700000
G01 Z1.000000
(G00 Z1.000000)
G00 X-6.35 Y6.35 
G01 Z-1.700000
G01 Z1.000000
(G00 Z1.000000)
G00 X-6.35 Y8.89 
G01 Z-1.700000
G01 Z1.000000
(G00 Z1.000000)
G00 X-6.35 Y11.43 
G01 Z-1.700000
G01 Z1.000000
M05
G00 Z10.00 
(M06 T04  ; 1.10 )
G01 Z0.00 F35.00 
(M06 T04  ; 1.10 )
G00 Z1.00 
M03
G04 P 6
G00 Z1.000000
G00 X-35.81 Y4.57 
G01 Z-1.70 F35.00 
G01 Z1.000000
(R1.00  P1.000000)
(G00 Z1.000000)
G00 X-41.53 Y9.53 
G01 Z-1.700000
G01 Z1.000000
(G00 Z1.000000)
G00 X-45.97 Y4.57 
G01 Z-1.700000
G01 Z1.000000
(G00 Z1.000000)
G00 X-48.90 Y17.14 
G01 Z-1.700000
G01 Z1.000000
(G00 Z1.000000)
G00 X-48.90 Y27.30 
G01 Z-1.700000
G01 Z1.000000
(G00 Z1.000000)
G00 X-51.69 Y9.53 
G01 Z-1.700000
G01 Z1.000000
(G00 Z1.000000)
G00 X-16.26 Y30.86 
G01 Z-1.700000
G01 Z1.000000
(G00 Z1.000000)
G00 X-17.27 Y4.57 
G01 Z-1.700000
G01 Z1.000000
(G00 Z1.000000)
G00 X-17.27 Y14.73 
G01 Z-1.700000
G01 Z1.000000
(G00 Z1.000000)
G00 X-26.42 Y30.86 
G01 Z-1.700000
G01 Z1.000000
T01 
G00 Z2.00 
M05
M02
