(.../pcb-gcode-3.6.0.4/pcb-gcode.ulp)
(Copyright 2005 - 2012 by John Johnson)
(See readme.txt for licensing terms.)
(This file generated from the board:)
(.../piezo-buffer-and-preamp-ritter_copperclad.brd)
(Current profile is .../pcb-gcode-3.6.0.4/profiles/imodela.pp  )
(This file generated 7/18/16 5:30 PM)
(Settings from pcb-machine.h)
(  Tool Size)
(0.20 )
(Z Axis Settings)
(  High     Up        Down     Drill)
(2.00 	1.00 	-0.20 	-1.70 )
(spindle on time = 6.0000)
(milling depth = -0.2540)
(text depth = -0.1270)
(tool change at 0.00 0.00 10.00 )
(feed rate xy = F140.00 )
(feed rate z  = F35.00 )
(Settings from pcb-defaults.h)
(isolate min = 0.0010)
(isolate max = 0.2000)
(isolate step = 0.2000)
(Generated bottom outlines, bottom drill, )
(Unit of measure: mm)
(Metric Mode)
G21
(Absolute Coordinates)
G90
G00 X0.00 Y0.00 
M03
G04 P 6
G00 Z1.00 
G00 X-7.39 Y11.35 
G01 Z-0.20 F35.00 
G01 X-7.39 Y11.51 F140.00 
G01 X-7.37 Y11.67 
G01 X-7.31 Y11.83 
G01 X-7.24 Y11.98 
G01 X-7.14 Y12.11 
G01 X-7.03 Y12.22 
G01 X-6.90 Y12.32 
G01 X-6.75 Y12.39 
G01 X-6.59 Y12.45 
G01 X-6.43 Y12.47 
G01 X-6.27 Y12.47 
G01 X-6.11 Y12.45 
G01 X-5.95 Y12.39 
G01 X-5.80 Y12.32 
G01 X-5.67 Y12.22 
G01 X-5.56 Y12.11 
G01 X-5.46 Y11.98 
G01 X-5.39 Y11.83 
G01 X-5.33 Y11.67 
G01 X-5.31 Y11.51 
G01 X-5.31 Y11.35 
G01 X-5.33 Y11.19 
G01 X-5.39 Y11.03 
G01 X-5.46 Y10.88 
G01 X-5.56 Y10.75 
G01 X-5.67 Y10.64 
G01 X-5.80 Y10.54 
G01 X-5.95 Y10.47 
G01 X-6.11 Y10.41 
G01 X-6.27 Y10.39 
G01 X-6.43 Y10.39 
G01 X-6.59 Y10.41 
G01 X-6.75 Y10.47 
G01 X-6.90 Y10.54 
G01 X-7.03 Y10.64 
G01 X-7.14 Y10.75 
G01 X-7.24 Y10.88 
G01 X-7.31 Y11.03 
G01 X-7.37 Y11.19 
G01 X-7.39 Y11.35 
G00 Z1.00 
G00 X-7.39 Y8.81 
G01 Z-0.20 F35.00 
G01 X-7.39 Y8.97 F140.00 
G01 X-7.37 Y9.13 
G01 X-7.31 Y9.29 
G01 X-7.24 Y9.44 
G01 X-7.14 Y9.57 
G01 X-7.03 Y9.68 
G01 X-6.90 Y9.78 
G01 X-6.75 Y9.85 
G01 X-6.59 Y9.91 
G01 X-6.43 Y9.93 
G01 X-6.27 Y9.93 
G01 X-6.11 Y9.91 
G01 X-5.95 Y9.85 
G01 X-5.80 Y9.78 
G01 X-5.67 Y9.68 
G01 X-5.56 Y9.57 
G01 X-5.46 Y9.44 
G01 X-5.39 Y9.29 
G01 X-5.33 Y9.13 
G01 X-5.31 Y8.97 
G01 X-5.31 Y8.81 
G01 X-5.33 Y8.65 
G01 X-5.39 Y8.49 
G01 X-5.46 Y8.34 
G01 X-5.56 Y8.21 
G01 X-5.67 Y8.10 
G01 X-5.80 Y8.00 
G01 X-5.95 Y7.93 
G01 X-6.11 Y7.87 
G01 X-6.27 Y7.85 
G01 X-6.43 Y7.85 
G01 X-6.59 Y7.87 
G01 X-6.75 Y7.93 
G01 X-6.90 Y8.00 
G01 X-7.03 Y8.10 
G01 X-7.14 Y8.21 
G01 X-7.24 Y8.34 
G01 X-7.31 Y8.49 
G01 X-7.37 Y8.65 
G01 X-7.39 Y8.81 
G00 Z1.00 
G00 X-7.11 Y17.26 
G01 Z-0.20 F35.00 
G01 X-7.02 Y17.39 F140.00 
G01 X-6.90 Y17.51 
G01 X-6.77 Y17.60 
G01 X-6.62 Y17.68 
G01 X-6.47 Y17.73 
G01 X-6.30 Y17.75 
G01 X-6.14 Y17.75 
G01 X-5.98 Y17.73 
G01 X-5.82 Y17.68 
G01 X-5.68 Y17.60 
G01 X-5.54 Y17.51 
G01 X-5.43 Y17.39 
G01 X-5.33 Y17.26 
G01 X-5.26 Y17.11 
G01 X-5.21 Y16.96 
G01 X-5.18 Y16.80 
G01 X-5.18 Y16.63 
G01 X-5.21 Y16.47 
G01 X-5.26 Y16.31 
G01 X-5.33 Y16.17 
G01 X-5.43 Y16.04 
G01 X-5.54 Y15.92 
G01 X-5.68 Y15.82 
G01 X-5.82 Y15.75 
G01 X-5.98 Y15.70 
G01 X-6.14 Y15.67 
G01 X-6.30 Y15.67 
G01 X-6.47 Y15.70 
G01 X-6.62 Y15.75 
G01 X-6.77 Y15.82 
G01 X-6.90 Y15.92 
G01 X-7.02 Y16.04 
G01 X-7.11 Y16.17 
G01 X-7.14 Y16.21 
G01 X-10.43 Y16.21 
G01 X-10.56 Y16.25 
G01 X-10.67 Y16.31 
G01 X-13.01 Y18.65 
G01 X-13.10 Y18.74 
G01 X-13.17 Y18.86 
G01 X-13.20 Y18.98 
G01 X-13.20 Y22.65 
G01 X-15.45 Y24.90 
G01 X-31.44 Y24.90 
G01 X-32.16 Y23.45 
G01 X-32.13 Y23.41 
G01 X-32.06 Y23.26 
G01 X-32.00 Y23.10 
G01 X-31.98 Y22.94 
G01 X-31.98 Y22.78 
G01 X-32.00 Y22.62 
G01 X-32.06 Y22.46 
G01 X-32.13 Y22.31 
G01 X-32.23 Y22.18 
G01 X-32.34 Y22.07 
G01 X-32.47 Y21.97 
G01 X-32.62 Y21.90 
G01 X-32.78 Y21.84 
G01 X-32.94 Y21.82 
G01 X-33.10 Y21.82 
G01 X-33.26 Y21.84 
G01 X-33.42 Y21.90 
G01 X-33.57 Y21.97 
G01 X-33.70 Y22.07 
G01 X-33.81 Y22.18 
G01 X-33.91 Y22.31 
G01 X-33.98 Y22.46 
G01 X-34.04 Y22.62 
G01 X-34.06 Y22.78 
G01 X-34.06 Y22.94 
G01 X-34.04 Y23.10 
G01 X-33.98 Y23.26 
G01 X-33.91 Y23.41 
G01 X-33.81 Y23.54 
G01 X-33.70 Y23.65 
G01 X-33.57 Y23.75 
G01 X-33.42 Y23.82 
G01 X-33.26 Y23.88 
G01 X-33.10 Y23.90 
G01 X-33.06 Y23.90 
G01 X-32.22 Y25.58 
G01 X-32.22 Y25.59 
G01 X-32.19 Y25.64 
G01 X-32.17 Y25.68 
G01 X-32.16 Y25.69 
G01 X-32.15 Y25.71 
G01 X-32.11 Y25.74 
G01 X-32.08 Y25.78 
G01 X-32.07 Y25.79 
G01 X-32.06 Y25.80 
G01 X-32.01 Y25.83 
G01 X-31.97 Y25.85 
G01 X-31.96 Y25.86 
G01 X-31.94 Y25.87 
G01 X-31.89 Y25.88 
G01 X-31.85 Y25.90 
G01 X-31.83 Y25.90 
G01 X-31.82 Y25.90 
G01 X-31.77 Y25.90 
G01 X-31.71 Y25.90 
G01 X-31.70 Y25.90 
G01 X-15.17 Y25.90 
G01 X-15.05 Y25.87 
G01 X-14.93 Y25.80 
G01 X-14.84 Y25.71 
G01 X-12.30 Y23.17 
G01 X-12.23 Y23.05 
G01 X-12.20 Y22.93 
G01 X-12.20 Y19.26 
G01 X-10.16 Y17.21 
G01 X-7.14 Y17.21 
G01 X-7.11 Y17.26 
G00 Z1.00 
G00 X-35.18 Y17.69 
G01 Z-0.20 F35.00 
G01 X-35.08 Y17.82 F140.00 
G01 X-34.97 Y17.94 
G01 X-34.84 Y18.04 
G01 X-34.69 Y18.11 
G01 X-34.53 Y18.16 
G01 X-34.37 Y18.19 
G01 X-34.21 Y18.19 
G01 X-34.05 Y18.16 
G01 X-33.89 Y18.11 
G01 X-33.74 Y18.04 
G01 X-33.61 Y17.94 
G01 X-33.50 Y17.82 
G01 X-33.40 Y17.69 
G01 X-33.33 Y17.54 
G01 X-33.27 Y17.39 
G01 X-33.25 Y17.23 
G01 X-33.25 Y17.06 
G01 X-33.27 Y16.90 
G01 X-33.33 Y16.75 
G01 X-33.40 Y16.60 
G01 X-33.50 Y16.47 
G01 X-33.61 Y16.35 
G01 X-33.74 Y16.25 
G01 X-33.89 Y16.18 
G01 X-34.05 Y16.13 
G01 X-34.21 Y16.10 
G01 X-34.37 Y16.10 
G01 X-34.53 Y16.13 
G01 X-34.69 Y16.18 
G01 X-34.84 Y16.25 
G01 X-34.97 Y16.35 
G01 X-35.08 Y16.47 
G01 X-35.18 Y16.60 
G01 X-35.20 Y16.64 
G01 X-48.09 Y16.64 
G01 X-48.51 Y16.22 
G01 X-49.28 Y16.22 
G01 X-49.82 Y16.76 
G01 X-49.82 Y17.53 
G01 X-49.28 Y18.07 
G01 X-48.51 Y18.07 
G01 X-48.09 Y17.65 
G01 X-35.20 Y17.65 
G01 X-35.18 Y17.69 
G00 Z1.00 
G00 X-36.60 Y22.78 
G01 Z-0.20 F35.00 
G01 X-36.60 Y22.94 F140.00 
G01 X-36.58 Y23.10 
G01 X-36.52 Y23.26 
G01 X-36.45 Y23.41 
G01 X-36.35 Y23.54 
G01 X-36.24 Y23.65 
G01 X-36.11 Y23.75 
G01 X-35.96 Y23.82 
G01 X-35.80 Y23.88 
G01 X-35.64 Y23.90 
G01 X-35.48 Y23.90 
G01 X-35.32 Y23.88 
G01 X-35.16 Y23.82 
G01 X-35.01 Y23.75 
G01 X-34.88 Y23.65 
G01 X-34.77 Y23.54 
G01 X-34.67 Y23.41 
G01 X-34.60 Y23.26 
G01 X-34.54 Y23.10 
G01 X-34.52 Y22.94 
G01 X-34.52 Y22.78 
G01 X-34.54 Y22.62 
G01 X-34.60 Y22.46 
G01 X-34.62 Y22.41 
G01 X-32.00 Y18.74 
G01 X-31.98 Y18.72 
G01 X-31.96 Y18.69 
G01 X-31.94 Y18.65 
G01 X-31.93 Y18.63 
G01 X-31.92 Y18.61 
G01 X-31.91 Y18.57 
G01 X-31.89 Y18.53 
G01 X-31.89 Y18.50 
G01 X-31.88 Y18.48 
G01 X-31.88 Y18.44 
G01 X-31.88 Y18.40 
G01 X-31.88 Y18.37 
G01 X-31.88 Y16.79 
G01 X-31.84 Y16.77 
G01 X-31.71 Y16.67 
G01 X-31.59 Y16.55 
G01 X-31.49 Y16.42 
G01 X-31.42 Y16.27 
G01 X-31.37 Y16.12 
G01 X-31.34 Y15.96 
G01 X-31.34 Y15.79 
G01 X-31.37 Y15.63 
G01 X-31.42 Y15.48 
G01 X-31.49 Y15.33 
G01 X-31.59 Y15.20 
G01 X-31.71 Y15.08 
G01 X-31.84 Y14.98 
G01 X-31.99 Y14.91 
G01 X-32.14 Y14.86 
G01 X-32.30 Y14.83 
G01 X-32.47 Y14.83 
G01 X-32.63 Y14.86 
G01 X-32.78 Y14.91 
G01 X-32.93 Y14.98 
G01 X-33.06 Y15.08 
G01 X-33.18 Y15.20 
G01 X-33.28 Y15.33 
G01 X-33.35 Y15.48 
G01 X-33.40 Y15.63 
G01 X-33.43 Y15.79 
G01 X-33.43 Y15.96 
G01 X-33.40 Y16.12 
G01 X-33.35 Y16.27 
G01 X-33.28 Y16.42 
G01 X-33.18 Y16.55 
G01 X-33.06 Y16.67 
G01 X-32.93 Y16.77 
G01 X-32.89 Y16.79 
G01 X-32.89 Y18.25 
G01 X-35.44 Y21.83 
G01 X-35.48 Y21.82 
G01 X-35.64 Y21.82 
G01 X-35.80 Y21.84 
G01 X-35.96 Y21.90 
G01 X-36.11 Y21.97 
G01 X-36.24 Y22.07 
G01 X-36.35 Y22.18 
G01 X-36.45 Y22.31 
G01 X-36.52 Y22.46 
G01 X-36.58 Y22.62 
G01 X-36.60 Y22.78 
G00 Z1.00 
G00 X-42.45 Y9.14 
G01 Z-0.20 F35.00 
G01 X-42.45 Y9.91 F140.00 
G01 X-41.91 Y10.45 
G01 X-41.31 Y10.45 
G01 X-41.20 Y10.56 
G01 X-41.09 Y10.63 
G01 X-40.96 Y10.66 
G01 X-30.67 Y10.66 
G01 X-18.71 Y21.43 
G01 X-18.71 Y22.44 
G01 X-18.69 Y22.47 
G01 X-18.66 Y22.50 
G01 X-18.63 Y22.52 
G01 X-16.93 Y22.52 
G01 X-16.90 Y22.50 
G01 X-16.87 Y22.47 
G01 X-16.85 Y22.44 
G01 X-16.85 Y20.74 
G01 X-16.87 Y20.71 
G01 X-16.90 Y20.68 
G01 X-16.93 Y20.66 
G01 X-18.06 Y20.66 
G01 X-30.14 Y9.80 
G01 X-30.17 Y9.76 
G01 X-30.18 Y9.75 
G01 X-30.19 Y9.74 
G01 X-30.24 Y9.72 
G01 X-30.29 Y9.69 
G01 X-30.30 Y9.69 
G01 X-30.31 Y9.68 
G01 X-30.36 Y9.67 
G01 X-30.41 Y9.66 
G01 X-30.43 Y9.66 
G01 X-30.44 Y9.66 
G01 X-30.49 Y9.66 
G01 X-40.60 Y9.66 
G01 X-40.60 Y9.14 
G01 X-41.15 Y8.60 
G01 X-41.91 Y8.60 
G01 X-42.45 Y9.14 
G00 Z1.00 
G00 X-17.66 Y5.50 
G01 Z-0.20 F35.00 
G01 X-16.89 Y5.50 F140.00 
G01 X-16.35 Y4.96 
G01 X-16.35 Y4.31 
G01 X-7.39 Y4.31 
G01 X-7.39 Y4.77 
G01 X-7.38 Y4.81 
G01 X-7.35 Y4.84 
G01 X-7.31 Y4.85 
G01 X-5.39 Y4.85 
G01 X-5.35 Y4.84 
G01 X-5.32 Y4.81 
G01 X-5.31 Y4.77 
G01 X-5.31 Y2.85 
G01 X-5.32 Y2.81 
G01 X-5.35 Y2.78 
G01 X-5.39 Y2.77 
G01 X-7.31 Y2.77 
G01 X-7.35 Y2.78 
G01 X-7.38 Y2.81 
G01 X-7.39 Y2.85 
G01 X-7.39 Y3.31 
G01 X-17.34 Y3.31 
G01 X-17.47 Y3.34 
G01 X-17.58 Y3.41 
G01 X-17.67 Y3.50 
G01 X-17.74 Y3.62 
G01 X-17.77 Y3.74 
G01 X-17.77 Y3.76 
G01 X-18.08 Y4.07 
G01 X-35.01 Y4.07 
G01 X-35.43 Y3.65 
G01 X-36.20 Y3.65 
G01 X-36.62 Y4.07 
G01 X-40.20 Y4.07 
G01 X-40.33 Y4.11 
G01 X-40.44 Y4.17 
G01 X-40.53 Y4.26 
G01 X-44.85 Y8.58 
G01 X-44.92 Y8.70 
G01 X-44.95 Y8.82 
G01 X-44.95 Y10.23 
G01 X-44.92 Y10.35 
G01 X-44.85 Y10.47 
G01 X-44.76 Y10.56 
G01 X-42.22 Y13.10 
G01 X-42.10 Y13.17 
G01 X-41.98 Y13.20 
G01 X-36.40 Y13.20 
G01 X-35.29 Y14.31 
G01 X-35.31 Y14.36 
G01 X-35.33 Y14.52 
G01 X-35.33 Y14.69 
G01 X-35.31 Y14.85 
G01 X-35.25 Y15.00 
G01 X-35.18 Y15.15 
G01 X-35.08 Y15.28 
G01 X-34.97 Y15.40 
G01 X-34.84 Y15.50 
G01 X-34.69 Y15.57 
G01 X-34.53 Y15.62 
G01 X-34.37 Y15.65 
G01 X-34.21 Y15.65 
G01 X-34.05 Y15.62 
G01 X-33.89 Y15.57 
G01 X-33.74 Y15.50 
G01 X-33.61 Y15.40 
G01 X-33.50 Y15.28 
G01 X-33.40 Y15.15 
G01 X-33.33 Y15.00 
G01 X-33.27 Y14.85 
G01 X-33.25 Y14.69 
G01 X-33.25 Y14.52 
G01 X-33.27 Y14.36 
G01 X-33.33 Y14.21 
G01 X-33.40 Y14.06 
G01 X-33.50 Y13.93 
G01 X-33.61 Y13.81 
G01 X-33.74 Y13.71 
G01 X-33.89 Y13.64 
G01 X-34.05 Y13.59 
G01 X-34.21 Y13.56 
G01 X-34.37 Y13.56 
G01 X-34.53 Y13.59 
G01 X-34.58 Y13.61 
G01 X-35.79 Y12.39 
G01 X-35.89 Y12.30 
G01 X-36.00 Y12.23 
G01 X-36.13 Y12.20 
G01 X-41.70 Y12.20 
G01 X-43.95 Y9.95 
G01 X-43.95 Y9.10 
G01 X-39.92 Y5.07 
G01 X-36.62 Y5.07 
G01 X-36.20 Y5.50 
G01 X-35.43 Y5.50 
G01 X-35.01 Y5.07 
G01 X-18.08 Y5.07 
G01 X-17.66 Y5.50 
G00 Z1.00 
G00 X-17.18 Y30.48 
G01 Z-0.20 F35.00 
G01 X-17.18 Y31.24 F140.00 
G01 X-16.64 Y31.79 
G01 X-16.04 Y31.79 
G01 X-15.77 Y32.06 
G01 X-15.67 Y32.15 
G01 X-15.56 Y32.22 
G01 X-15.43 Y32.25 
G01 X-5.01 Y32.25 
G01 X-4.89 Y32.22 
G01 X-4.77 Y32.15 
G01 X-2.23 Y29.61 
G01 X-2.14 Y29.52 
G01 X-2.07 Y29.40 
G01 X-2.04 Y29.28 
G01 X-2.04 Y25.41 
G01 X-2.07 Y25.28 
G01 X-2.14 Y25.17 
G01 X-2.23 Y25.08 
G01 X-2.35 Y25.01 
G01 X-2.47 Y24.98 
G01 X-5.31 Y24.98 
G01 X-5.33 Y24.93 
G01 X-5.43 Y24.80 
G01 X-5.54 Y24.68 
G01 X-5.68 Y24.59 
G01 X-5.72 Y24.56 
G01 X-5.72 Y20.52 
G01 X-5.68 Y20.50 
G01 X-5.54 Y20.40 
G01 X-5.43 Y20.29 
G01 X-5.33 Y20.15 
G01 X-5.28 Y20.06 
G01 X-4.76 Y20.06 
G01 X-4.63 Y20.02 
G01 X-4.52 Y19.96 
G01 X-4.43 Y19.87 
G01 X-2.77 Y18.21 
G01 X-2.71 Y18.10 
G01 X-2.67 Y17.97 
G01 X-2.67 Y9.46 
G01 X-2.71 Y9.33 
G01 X-2.77 Y9.22 
G01 X-2.87 Y9.12 
G01 X-5.35 Y6.64 
G01 X-5.33 Y6.59 
G01 X-5.31 Y6.43 
G01 X-5.31 Y6.27 
G01 X-5.33 Y6.11 
G01 X-5.39 Y5.95 
G01 X-5.46 Y5.80 
G01 X-5.56 Y5.67 
G01 X-5.67 Y5.56 
G01 X-5.80 Y5.46 
G01 X-5.95 Y5.39 
G01 X-6.11 Y5.33 
G01 X-6.27 Y5.31 
G01 X-6.43 Y5.31 
G01 X-6.59 Y5.33 
G01 X-6.75 Y5.39 
G01 X-6.90 Y5.46 
G01 X-7.03 Y5.56 
G01 X-7.14 Y5.67 
G01 X-7.24 Y5.80 
G01 X-7.26 Y5.85 
G01 X-8.96 Y5.85 
G01 X-9.08 Y5.88 
G01 X-9.20 Y5.95 
G01 X-17.05 Y13.81 
G01 X-17.66 Y13.81 
G01 X-18.20 Y14.35 
G01 X-18.20 Y14.96 
G01 X-18.25 Y15.05 
G01 X-18.28 Y15.17 
G01 X-18.28 Y18.27 
G01 X-18.37 Y18.33 
G01 X-18.50 Y18.46 
G01 X-18.60 Y18.61 
G01 X-18.67 Y18.78 
G01 X-18.71 Y18.96 
G01 X-18.71 Y19.14 
G01 X-18.67 Y19.32 
G01 X-18.60 Y19.49 
G01 X-18.50 Y19.64 
G01 X-18.37 Y19.77 
G01 X-18.22 Y19.87 
G01 X-18.05 Y19.94 
G01 X-17.87 Y19.98 
G01 X-17.69 Y19.98 
G01 X-17.51 Y19.94 
G01 X-17.34 Y19.87 
G01 X-17.19 Y19.77 
G01 X-17.06 Y19.64 
G01 X-16.96 Y19.49 
G01 X-16.89 Y19.32 
G01 X-16.85 Y19.14 
G01 X-16.85 Y18.96 
G01 X-16.89 Y18.78 
G01 X-16.96 Y18.61 
G01 X-17.06 Y18.46 
G01 X-17.19 Y18.33 
G01 X-17.28 Y18.27 
G01 X-17.28 Y15.66 
G01 X-16.89 Y15.66 
G01 X-16.35 Y15.12 
G01 X-16.35 Y14.51 
G01 X-8.68 Y6.85 
G01 X-7.26 Y6.85 
G01 X-7.24 Y6.90 
G01 X-7.14 Y7.03 
G01 X-7.03 Y7.14 
G01 X-6.90 Y7.24 
G01 X-6.75 Y7.31 
G01 X-6.59 Y7.37 
G01 X-6.43 Y7.39 
G01 X-6.27 Y7.39 
G01 X-6.11 Y7.37 
G01 X-6.06 Y7.35 
G01 X-3.68 Y9.73 
G01 X-3.68 Y17.70 
G01 X-5.03 Y19.06 
G01 X-5.34 Y19.06 
G01 X-5.43 Y18.93 
G01 X-5.54 Y18.81 
G01 X-5.68 Y18.72 
G01 X-5.82 Y18.64 
G01 X-5.98 Y18.59 
G01 X-6.14 Y18.57 
G01 X-6.30 Y18.57 
G01 X-6.47 Y18.59 
G01 X-6.62 Y18.64 
G01 X-6.77 Y18.72 
G01 X-6.90 Y18.81 
G01 X-7.02 Y18.93 
G01 X-7.11 Y19.06 
G01 X-7.19 Y19.21 
G01 X-7.24 Y19.37 
G01 X-7.26 Y19.53 
G01 X-7.26 Y19.69 
G01 X-7.24 Y19.85 
G01 X-7.19 Y20.01 
G01 X-7.11 Y20.15 
G01 X-7.02 Y20.29 
G01 X-6.90 Y20.40 
G01 X-6.77 Y20.50 
G01 X-6.72 Y20.52 
G01 X-6.72 Y24.56 
G01 X-6.77 Y24.59 
G01 X-6.90 Y24.68 
G01 X-7.02 Y24.80 
G01 X-7.11 Y24.93 
G01 X-7.19 Y25.08 
G01 X-7.24 Y25.23 
G01 X-7.26 Y25.39 
G01 X-7.26 Y25.56 
G01 X-7.24 Y25.72 
G01 X-7.19 Y25.88 
G01 X-7.11 Y26.02 
G01 X-7.02 Y26.15 
G01 X-6.90 Y26.27 
G01 X-6.77 Y26.37 
G01 X-6.62 Y26.44 
G01 X-6.47 Y26.49 
G01 X-6.30 Y26.52 
G01 X-6.14 Y26.52 
G01 X-5.98 Y26.49 
G01 X-5.82 Y26.44 
G01 X-5.68 Y26.37 
G01 X-5.54 Y26.27 
G01 X-5.43 Y26.15 
G01 X-5.33 Y26.02 
G01 X-5.31 Y25.98 
G01 X-3.04 Y25.98 
G01 X-3.04 Y29.00 
G01 X-5.29 Y31.25 
G01 X-15.16 Y31.25 
G01 X-15.33 Y31.08 
G01 X-15.33 Y30.48 
G01 X-15.87 Y29.94 
G01 X-16.64 Y29.94 
G01 X-17.18 Y30.48 
G00 Z1.00 
G00 X-26.80 Y31.79 
G01 Z-0.20 F35.00 
G01 X-26.03 Y31.79 F140.00 
G01 X-25.49 Y31.24 
G01 X-25.49 Y30.64 
G01 X-23.29 Y28.44 
G01 X-15.97 Y28.44 
G01 X-15.03 Y28.82 
G01 X-15.00 Y28.84 
G01 X-14.97 Y28.85 
G01 X-14.94 Y28.86 
G01 X-14.90 Y28.86 
G01 X-14.87 Y28.87 
G01 X-14.84 Y28.87 
G01 X-14.80 Y28.88 
G01 X-14.77 Y28.87 
G01 X-7.14 Y28.87 
G01 X-7.11 Y28.92 
G01 X-7.02 Y29.05 
G01 X-6.90 Y29.17 
G01 X-6.77 Y29.26 
G01 X-6.62 Y29.34 
G01 X-6.47 Y29.39 
G01 X-6.30 Y29.41 
G01 X-6.14 Y29.41 
G01 X-5.98 Y29.39 
G01 X-5.82 Y29.34 
G01 X-5.68 Y29.26 
G01 X-5.54 Y29.17 
G01 X-5.43 Y29.05 
G01 X-5.33 Y28.92 
G01 X-5.26 Y28.77 
G01 X-5.21 Y28.62 
G01 X-5.18 Y28.45 
G01 X-5.18 Y28.29 
G01 X-5.21 Y28.13 
G01 X-5.26 Y27.97 
G01 X-5.33 Y27.83 
G01 X-5.43 Y27.69 
G01 X-5.54 Y27.58 
G01 X-5.68 Y27.48 
G01 X-5.82 Y27.41 
G01 X-5.98 Y27.36 
G01 X-6.14 Y27.33 
G01 X-6.30 Y27.33 
G01 X-6.47 Y27.36 
G01 X-6.62 Y27.41 
G01 X-6.77 Y27.48 
G01 X-6.90 Y27.58 
G01 X-7.02 Y27.69 
G01 X-7.11 Y27.83 
G01 X-7.14 Y27.87 
G01 X-14.71 Y27.87 
G01 X-15.65 Y27.49 
G01 X-15.68 Y27.47 
G01 X-15.72 Y27.46 
G01 X-15.75 Y27.45 
G01 X-15.78 Y27.45 
G01 X-15.81 Y27.44 
G01 X-15.84 Y27.44 
G01 X-15.88 Y27.43 
G01 X-15.91 Y27.44 
G01 X-23.56 Y27.44 
G01 X-23.69 Y27.47 
G01 X-23.80 Y27.54 
G01 X-23.90 Y27.63 
G01 X-26.20 Y29.94 
G01 X-26.80 Y29.94 
G01 X-27.22 Y30.36 
G01 X-39.61 Y30.36 
G01 X-39.62 Y30.24 
G01 X-39.68 Y30.08 
G01 X-39.75 Y29.93 
G01 X-39.85 Y29.80 
G01 X-39.96 Y29.69 
G01 X-40.09 Y29.59 
G01 X-40.24 Y29.52 
G01 X-40.40 Y29.46 
G01 X-40.56 Y29.44 
G01 X-40.72 Y29.44 
G01 X-40.88 Y29.46 
G01 X-41.04 Y29.52 
G01 X-41.19 Y29.59 
G01 X-41.32 Y29.69 
G01 X-41.43 Y29.80 
G01 X-41.53 Y29.93 
G01 X-41.60 Y30.08 
G01 X-41.66 Y30.24 
G01 X-41.68 Y30.40 
G01 X-41.68 Y30.56 
G01 X-41.66 Y30.72 
G01 X-41.60 Y30.88 
G01 X-41.53 Y31.03 
G01 X-41.43 Y31.16 
G01 X-41.32 Y31.27 
G01 X-41.19 Y31.37 
G01 X-41.04 Y31.44 
G01 X-40.88 Y31.50 
G01 X-40.72 Y31.52 
G01 X-40.56 Y31.52 
G01 X-40.40 Y31.50 
G01 X-40.24 Y31.44 
G01 X-40.09 Y31.37 
G01 X-40.08 Y31.36 
G01 X-27.22 Y31.36 
G01 X-26.80 Y31.79 
G00 Z1.00 
G00 X-35.18 Y25.31 
G01 Z-0.20 F35.00 
G01 X-35.08 Y25.44 F140.00 
G01 X-34.97 Y25.56 
G01 X-34.84 Y25.66 
G01 X-34.69 Y25.73 
G01 X-34.53 Y25.78 
G01 X-34.37 Y25.81 
G01 X-34.21 Y25.81 
G01 X-34.05 Y25.78 
G01 X-33.89 Y25.73 
G01 X-33.74 Y25.66 
G01 X-33.61 Y25.56 
G01 X-33.50 Y25.44 
G01 X-33.40 Y25.31 
G01 X-33.33 Y25.16 
G01 X-33.27 Y25.01 
G01 X-33.25 Y24.85 
G01 X-33.25 Y24.68 
G01 X-33.27 Y24.52 
G01 X-33.33 Y24.37 
G01 X-33.40 Y24.22 
G01 X-33.50 Y24.09 
G01 X-33.61 Y23.97 
G01 X-33.74 Y23.87 
G01 X-33.89 Y23.80 
G01 X-34.05 Y23.75 
G01 X-34.21 Y23.72 
G01 X-34.37 Y23.72 
G01 X-34.53 Y23.75 
G01 X-34.69 Y23.80 
G01 X-34.84 Y23.87 
G01 X-34.97 Y23.97 
G01 X-35.08 Y24.09 
G01 X-35.18 Y24.22 
G01 X-35.20 Y24.26 
G01 X-40.73 Y24.26 
G01 X-40.76 Y24.26 
G01 X-40.80 Y24.26 
G01 X-40.83 Y24.26 
G01 X-40.86 Y24.27 
G01 X-40.89 Y24.28 
G01 X-40.93 Y24.29 
G01 X-40.96 Y24.30 
G01 X-40.99 Y24.31 
G01 X-41.02 Y24.33 
G01 X-41.04 Y24.35 
G01 X-41.07 Y24.36 
G01 X-41.10 Y24.39 
G01 X-41.12 Y24.41 
G01 X-41.14 Y24.43 
G01 X-41.17 Y24.46 
G01 X-41.18 Y24.48 
G01 X-41.20 Y24.51 
G01 X-41.22 Y24.54 
G01 X-41.23 Y24.57 
G01 X-41.24 Y24.60 
G01 X-43.29 Y29.44 
G01 X-43.31 Y29.45 
G01 X-45.04 Y27.03 
G01 X-45.07 Y27.00 
G01 X-45.08 Y26.98 
G01 X-45.10 Y26.96 
G01 X-45.13 Y26.93 
G01 X-45.16 Y26.90 
G01 X-45.18 Y26.89 
G01 X-45.20 Y26.88 
G01 X-45.24 Y26.86 
G01 X-45.27 Y26.84 
G01 X-45.30 Y26.83 
G01 X-45.32 Y26.82 
G01 X-45.36 Y26.81 
G01 X-45.40 Y26.80 
G01 X-45.43 Y26.80 
G01 X-45.45 Y26.80 
G01 X-45.49 Y26.80 
G01 X-48.09 Y26.80 
G01 X-48.51 Y26.38 
G01 X-49.28 Y26.38 
G01 X-49.82 Y26.92 
G01 X-49.82 Y27.69 
G01 X-49.28 Y28.23 
G01 X-48.51 Y28.23 
G01 X-48.09 Y27.81 
G01 X-45.72 Y27.81 
G01 X-44.12 Y30.03 
G01 X-44.14 Y30.08 
G01 X-44.20 Y30.24 
G01 X-44.22 Y30.40 
G01 X-44.22 Y30.56 
G01 X-44.20 Y30.72 
G01 X-44.14 Y30.88 
G01 X-44.07 Y31.03 
G01 X-43.97 Y31.16 
G01 X-43.86 Y31.27 
G01 X-43.73 Y31.37 
G01 X-43.58 Y31.44 
G01 X-43.42 Y31.50 
G01 X-43.26 Y31.52 
G01 X-43.10 Y31.52 
G01 X-42.94 Y31.50 
G01 X-42.78 Y31.44 
G01 X-42.63 Y31.37 
G01 X-42.50 Y31.27 
G01 X-42.39 Y31.16 
G01 X-42.29 Y31.03 
G01 X-42.22 Y30.88 
G01 X-42.16 Y30.72 
G01 X-42.14 Y30.56 
G01 X-42.14 Y30.40 
G01 X-42.16 Y30.24 
G01 X-42.22 Y30.08 
G01 X-42.29 Y29.93 
G01 X-42.36 Y29.83 
G01 X-40.43 Y25.27 
G01 X-35.20 Y25.27 
G01 X-35.18 Y25.31 
G00 Z1.00 
G00 X-42.80 Y32.93 
G01 Z-0.20 F35.00 
G01 X-42.70 Y33.06 F140.00 
G01 X-42.59 Y33.18 
G01 X-42.46 Y33.28 
G01 X-42.31 Y33.35 
G01 X-42.15 Y33.40 
G01 X-41.99 Y33.43 
G01 X-41.83 Y33.43 
G01 X-41.67 Y33.40 
G01 X-41.51 Y33.35 
G01 X-41.36 Y33.28 
G01 X-41.23 Y33.18 
G01 X-41.12 Y33.06 
G01 X-41.02 Y32.93 
G01 X-40.95 Y32.78 
G01 X-40.89 Y32.63 
G01 X-40.87 Y32.47 
G01 X-40.87 Y32.30 
G01 X-40.89 Y32.14 
G01 X-40.95 Y31.99 
G01 X-41.02 Y31.84 
G01 X-41.12 Y31.71 
G01 X-41.23 Y31.59 
G01 X-41.36 Y31.49 
G01 X-41.51 Y31.42 
G01 X-41.67 Y31.37 
G01 X-41.83 Y31.34 
G01 X-41.99 Y31.34 
G01 X-42.15 Y31.37 
G01 X-42.31 Y31.42 
G01 X-42.46 Y31.49 
G01 X-42.59 Y31.59 
G01 X-42.70 Y31.71 
G01 X-42.80 Y31.84 
G01 X-42.82 Y31.88 
G01 X-52.50 Y31.88 
G01 X-54.11 Y30.27 
G01 X-54.11 Y12.65 
G01 X-51.91 Y10.45 
G01 X-51.31 Y10.45 
G01 X-50.76 Y9.91 
G01 X-50.76 Y9.31 
G01 X-46.66 Y5.20 
G01 X-46.36 Y5.50 
G01 X-45.59 Y5.50 
G01 X-45.05 Y4.96 
G01 X-45.05 Y4.19 
G01 X-45.59 Y3.65 
G01 X-46.36 Y3.65 
G01 X-46.78 Y4.07 
G01 X-46.80 Y4.07 
G01 X-46.93 Y4.11 
G01 X-47.04 Y4.17 
G01 X-51.47 Y8.60 
G01 X-52.07 Y8.60 
G01 X-52.61 Y9.14 
G01 X-52.61 Y9.74 
G01 X-54.92 Y12.05 
G01 X-55.01 Y12.14 
G01 X-55.08 Y12.25 
G01 X-55.11 Y12.38 
G01 X-55.11 Y30.55 
G01 X-55.08 Y30.67 
G01 X-55.01 Y30.79 
G01 X-54.92 Y30.88 
G01 X-53.11 Y32.69 
G01 X-53.01 Y32.79 
G01 X-52.90 Y32.85 
G01 X-52.77 Y32.89 
G01 X-42.82 Y32.89 
G01 X-42.80 Y32.93 
G00 Z1.00 
G00 Z2.00 
M05
M02
